X:1161
T:Brännvinspolska efter Kvick Olle
R:Polska
Z:Göran Hed 2009-02-07
O:Ovansjö, Gästrikland
S:efter Kvick-Olle
M: 3/4
L: 1/16
K:C
C4 E2E2 G2G2| c2c2 e2e2 g4| e2de fgfe dedc|BcBA GAGF EDCB,|
C2C2 E2E2 G2G2| c2c2 e2e2 g4| e2de fgfe d2f2| edcB B4c4:|
|:efed c2c2 c2e2| g2d2 dcBA G4| c2cB ABA^G A2c2| e2dc BAG^F G4|
cege cege cege| e3d d2d2 d4| cege cege cege| e3d d2d2 d4|
C2DE FGAB cdef|gfdB d4c4:|
(:musicend:)

(:music:)
